packages/dnb-ui-lib/assets/icons/pay_from_medium.svg

<svg width="24" height="24" viewBox="0 0 24 24" fill="none" xmlns="http://www.w3.org/2000/svg">
<path fill-rule="evenodd" clip-rule="evenodd" d="M17.5078 2.27195C17.5729 2.24262 17.6451 2.24356 17.707 2.26955C17.7685 2.29535 17.7984 2.33543 17.8095 2.37062L18.5244 2.14389L17.8095 2.37062L18.6118 4.90015H11.6731L17.5078 2.27195ZM19.2393 1.91716L20.1854 4.90015H20.591C22.0197 4.90015 23.2501 6.00572 23.2501 7.45602V8.25001C23.2501 8.66422 22.9143 9.00001 22.5001 9.00001C22.0859 9.00001 21.7501 8.66422 21.7501 8.25001V7.45602C21.7501 6.91161 21.271 6.40015 20.591 6.40015H19.6365H8.18191H5.31827C4.6383 6.40015 4.15918 6.91161 4.15918 7.45602V20.6941C4.15918 21.2385 4.6383 21.75 5.31827 21.75H20.591C21.271 21.75 21.7501 21.2385 21.7501 20.6941V20.2427C21.7501 19.8284 22.0859 19.4927 22.5001 19.4927C22.9143 19.4927 23.2501 19.8284 23.2501 20.2427V20.6941C23.2501 22.1444 22.0197 23.25 20.591 23.25H5.31827C3.88952 23.25 2.65918 22.1444 2.65918 20.6941V7.45602C2.65918 6.00571 3.88952 4.90015 5.31827 4.90015H8.02079L16.8917 0.904294C17.7973 0.496405 18.9252 0.92673 19.2393 1.91716ZM20.7805 10.9697C20.4876 10.6768 20.0127 10.6768 19.7198 10.9697C19.4269 11.2626 19.4269 11.7374 19.7198 12.0303L21.3394 13.65H15.9251C15.5109 13.65 15.1751 13.9858 15.1751 14.4C15.1751 14.8142 15.5109 15.15 15.9251 15.15H21.3394L19.7198 16.7696C19.4269 17.0625 19.4269 17.5374 19.7198 17.8303C20.0127 18.1232 20.4876 18.1232 20.7805 17.8303L23.6804 14.9303C23.8211 14.7897 23.9001 14.5989 23.9001 14.4C23.9001 14.2011 23.8211 14.0103 23.6804 13.8696L20.7805 10.9697Z" fill="black"/>
</svg>

<svg width="24" height="24" viewBox="0 0 24 24" fill="none" xmlns="http://www.w3.org/2000/svg"><path fill-rule="evenodd" clip-rule="evenodd" d="M17.508 2.272a.25.25 0 01.199-.002c.061.025.091.065.102.1l.715-.226-.715.227.803 2.53h-6.939l5.835-2.629zm1.731-.355l.946 2.983h.406c1.429 0 2.66 1.106 2.66 2.556v.794a.75.75 0 01-1.5 0v-.794c0-.544-.48-1.056-1.16-1.056H5.318c-.68 0-1.159.512-1.159 1.056v13.238c0 .544.48 1.056 1.16 1.056H20.59c.68 0 1.16-.512 1.16-1.056v-.451a.75.75 0 111.5 0v.451c0 1.45-1.231 2.556-2.66 2.556H5.318c-1.428 0-2.659-1.106-2.659-2.556V7.456c0-1.45 1.23-2.556 2.66-2.556H8.02L16.89.904c.906-.408 2.034.023 2.348 1.013zm1.541 9.053a.75.75 0 00-1.06 1.06l1.62 1.62h-5.415a.75.75 0 000 1.5h5.414l-1.62 1.62a.75.75 0 001.061 1.06l2.9-2.9a.75.75 0 000-1.06l-2.9-2.9z" fill="#000"/></svg>
